!!!!SEGMENT: pl-sa--549-a-ix-29--032_anonim--rondo.krn
!!!cenid: 18xx:486
!!!COM: Anonim
!!!COM-rismID: pe30004985
!!!CDT:
!!!CNT:
!!!OTL: Rondo
!!!PDT:
!!!AGN: Secular; Rondo
!!!SMS-siglum: PL-SA
!!!SMS-shelfmark: 549/A IX 29
!!!SMS-shelfwork: 032 W
!!!SMS-variant:
!!!SMS-altvar:
!!!NIFC-rismSourceID: 1001068920
!!!NIFC-rismChildID: 1001068920
!!!NIFC-islandoraID: none
!!!URL-pdf-islandora:
!!!URL-scan: https://bc.bdsandomierz.pl/dlibra/publication/1441/edition/1409/content @EN{Scan in the Sandomierz Diocese Digital Library} @PL{Skany w portalu Cyfrowa Biblioteka Diecezjalna w Sandomierzu}
!!!ONB-nifc: Str. 23, s. 1-5
!!!AIN: 1 piano
!!!key: C
**kern	**kern	**dynam
*group1	*group1	*
*part1	*part1	*part1
*staff2	*staff1	*
*I"[Piano]	*I"[Piano]	*
*Ipiano	*Ipiano	*
*ICklav	*ICklav	*
*clefF4	*clefG2	*
*k[]	*	*
*C:	*	*
*M3/8	*M3/8	*
*>[A,A,B,B,C,C,D,D]	*>[A,A,B,B,C,C,D,D]	*
=1	=1	=1
*>A	*>A	*
!	!	!LO:DY:rj
8C\L	4e/ 4cc/	p
8c\	.	.
8c\J	8e/ 8cc/	.
=2	=2	=2
*rep	*	*
8C\L	8f/L 8dd/	.
8c\	8e/ 8cc/	.
8c\J	8f/J 8dd/	.
*Xrep	*	*
=3	=3	=3
*rep	*	*
8C\L	4g/ 4ee/	.
8c\	.	.
8c\J	8g/ 8ee/	.
*Xrep	*	*
=4	=4	=4
*rep	*	*
8C\L	4g/ 4ee/	.
8c\	.	.
8c\J	8e/ 8cc/	.
*Xrep	*	*
=5	=5	=5
8G\L	8.dd\L	.
8d\ 8f	.	.
.	16ff\L	.
8d\J 8f	16ee\	.
.	16dd\JJ	.
=6	=6	=6
*rep	*	*
8G\L	8b\L	.
8d\ 8f	16b\L	.
.	16a\	.
8d\J 8f	16b\	.
.	16g\JJ	.
*Xrep	*	*
=7	=7	=7
.	8qg/	.
4C/	4cc\	.
8c\ 8e\	8ee\	.
=8	=8	=8
8e\L 8g\	8gg\L	.
8d#X\ 8f#X\	8ff#X\	.
8e\J 8g\	8gg\J	.
=9	=9	=9
!	!	!LO:DY:t=for
16CC/LL	4c/ 4e/ 4cc/	f
16C/	.	.
16CC/	.	.
16C/	.	.
16CC/	8c/ 8e/ 8cc/	.
16C/JJ	.	.
=10	=10	=10
*rep	*	*
16CC/LL	8d/L 8f/ 8dd/	.
16C/	.	.
16CC/	8c/ 8e/ 8cc/	.
16C/	.	.
16CC/	8d/J 8f/ 8dd/	.
16C/JJ	.	.
*Xrep	*	*
=11	=11	=11
*rep	*	*
16CC/LL	4e/ 4g/ 4ee/	.
16C/	.	.
16CC/	.	.
16C/	.	.
16CC/	8e/ 8g/ 8ee/	.
16C/JJ	.	.
*Xrep	*	*
=12	=12	=12
*rep	*	*
16CC/LL	4e/ 4g/ 4ee/	.
16C/	.	.
16CC/	.	.
16C/	.	.
16CC/	8c/ 8e/ 8cc/	.
16C/JJ	.	.
*Xrep	*	*
=13	=13	=13
!!mixed beam:problem
!LO:TX:t=P:problem=mixed beam	!	!
8GG/L	8.dd\L	.
8G\ 8d\	.	.
.	16ff\L	.
8G\J 8d	16ee\	.
.	16dd\JJ	.
!!LO:LB:g=original
=14	=14	=14
*rep	*	*
8GG/L	8b\L	.
8G\ 8d	16b\L	.
.	16a\	.
8G\J 8d	16b\	.
.	16g\JJ	.
*Xrep	*	*
=15	=15	=15
!!mixed beam:problem
!LO:TX:t=P:problem=mixed beam	!	!
8C/L	8.cc\L	.
8c\ 8e\	.	.
.	16g\L	.
8c\J 8e\	16ee\	.
.	16g\JJ	.
=16	=16	=16
4.c\ 4.e\	4.cc/	.
=17:|!|:	=17:|!|:	=17:|!|:
*>B	*>B	*
!!mixed beam:problem
!LO:TX:t=P:problem=mixed beam	!	!
8GG/L	8.dd\L	.
8G\ 8d\	.	.
.	16ee\L	.
8G\J 8d\	16dd\	.
.	16cc\JJ	.
=18	=18	=18
*rep	*	*
8GG/L	8.b\L	.
8G\ 8d\	.	.
.	16a\L	.
8G\J 8d\	16b\	.
.	16g\JJ	.
*Xrep	*	*
=19	=19	=19
!!mixed beam:problem
!	!LO:TX:t=P:problem=mixed beam	!
8C/L	4cc/	.
8c\ 8e\	.	.
8c\J 8e\	8g/	.
=20	=20	=20
*rep	*	*
8C/L	4ee\	.
8c\ 8e\	.	.
8c\J 8e\	8cc\	.
*Xrep	*	*
=21	=21	=21
!!mixed beam:problem
!	!LO:TX:t=P:problem=mixed beam	!
8GG/L	8.dd\L	.
8G\ 8d\	.	.
!	!LO:TX:a:t=e	!
.	16ff\L	.
!	!LO:TX:a:t=d	!
8G\J 8d\	16ee\	.
!	!LO:TX:a:t=c	!
.	16dd\JJ	.
=22	=22	=22
*rep	*	*
8GG/L	8b\L 8cc	.
8G\ 8d\	16b\L	.
.	16a\	.
8G\J 8d\	16b\	.
.	16g\JJ	.
*Xrep	*	*
=23	=23	=23
.	8qg/	.
4C/	4cc\	.
8c\ 8e\	8ee\	.
=24	=24	=24
8e\L 8g\	8gg\L	.
8d#X\ 8f#X\	8ff#X\	.
8e\J 8g\	8gg\J	.
=25	=25	=25
*tremolo	*	*
16CC/LL	4c/ 4e/ 4cc/	.
16C/	.	.
16CC/	.	.
16C/	.	.
!	!	!LO:DY:t=for:rj
16CC/	8c/ 8e/ 8cc/	f
16C/JJ	.	.
!!LO:LB:g=original
=26	=26	=26
16CC/LL	8d/L 8f/ 8dd/	.
16C/	.	.
16CC/	8c/ 8e/ 8cc/	.
16C/	.	.
16CC/	8d/J 8f/ 8dd/	.
16C/JJ	.	.
=27	=27	=27
16CC/LL	4e/ 4g/ 4ee/	.
16C/	.	.
16CC/	.	.
16C/	.	.
16CC/	8e/ 8g/ 8ee/	.
16C/JJ	.	.
=28	=28	=28
16CC/LL	4e/ 4g/ 4ee/	.
16C/	.	.
16CC/	.	.
16C/	.	.
16CC/	8c/ 8e/ 8cc/	.
16C/JJ	.	.
*Xtremolo	*	*
=29	=29	=29
!!mixed beam:problem
!LO:TX:t=P:problem=mixed beam	!	!
8GG/L	8.dd\L	.
8G\ 8d\	.	.
.	16ee\L	.
8G\J 8d\	16dd\	.
.	16cc\JJ	.
=30	=30	=30
*rep	*	*
8GG/L	8b\L	.
8G\ 8d\	16b\L	.
.	16a\	.
8G\J 8d\	16b\	.
.	16g\JJ	.
*Xrep	*	*
=31	=31	=31
!!mixed beam:problem
!LO:TX:t=P:problem=mixed beam	!	!
8C/L	8.cc\L	.
8c\ 8e\	.	.
.	16g\L	.
8c\J 8e\	16ee\	.
.	16g\JJ	.
=32	=32	=32
4.c\ 4.e\	4.cc\	.
=33:|!|:	=33:|!|:	=33:|!|:
*>C	*>C	*
!	!	!LO:DY:rj
.	8qqf#X/	p
!!mixed beam:problem
!LO:TX:t=P:problem=mixed beam	!	!
8C/L	8g/L	.
8c\ 8e	16a/L	.
.	16g/	.
8c\J 8e	16f#/	.
.	16g/JJ	.
=34	=34	=34
*rep	*	*
8C/L	4g/ 4ee	.
8c\ 8e	.	.
8c\J 8e	8f/ 8dd	.
*Xrep	*	*
=35	=35	=35
*rep	*	*
8C/L	8e/L 8cc	.
8c\ 8e	16cc/L	.
.	16dd/	.
8c\J 8e	16cc/	.
.	16b/JJ	.
*Xrep	*	*
=36	=36	=36
*rep	*	*
8C/L	4.e/ 4.cc	.
8c\ 8e	.	.
8c\J 8e	.	.
*Xrep	*	*
=37	=37	=37
!!mixed beam:problem
!LO:TX:t=P:problem=mixed beam	!	!
.	8qf#X/	.
8GG/L	8g/L	.
8G\ 8d	16a/L	.
.	16g/	.
8G\J 8d	16f#/	.
.	16g/JJ	.
=38	=38	=38
*rep	*	*
8GG/L	4dd\ 4ffn	.
8G\ 8d	.	.
8G\J 8d	8cc\ 8ee	.
*Xrep	*	*
!!LO:LB:g=original
=39	=39	=39
*rep	*	*
.	8qcc/	.
8GG/L	8dd\L	.
8G\ 8d	16dd\L	.
.	16ee\	.
8G\J 8d	16dd\	.
.	16cc#X\JJ	.
*Xrep	*	*
=40	=40	=40
*rep	*	*
8GG/L	4.dd\	.
8G\ 8d	.	.
8G\J 8d	.	.
*Xrep	*	*
=41	=41	=41
!	!	!LO:DY:rj
.	8qqf#X/	f
!!mixed beam:problem
!LO:TX:t=P:problem=mixed beam	!	!
8C/L	8g/L	.
8c\ 8e\	16a/L	.
.	16g/	.
8c\J 8e\	16f#/	.
.	16g/JJ	.
=42	=42	=42
*rep	*	*
8C/L	4g\ 4ee\	.
8c\ 8e\	.	.
8c\J 8e\	8f\ 8dd\	.
*Xrep	*	*
=43	=43	=43
*rep	*	*
8C/L	8f/L 8dd/	.
8c\ 8e\	8e/ 8cc/	.
8c\J 8e\	8d/J 8b/	.
*Xrep	*	*
=44	=44	=44
*rep	*	*
8C/L	8e\L 8cc\	.
8c\ 8e\	8f\ 8dd\	.
8c\J 8e\	8g\J 8ee\	.
*Xrep	*	*
=45	=45	=45
*tremolo	*	*
16FF/LL	8a\L 8ff\	.
16F\	.	.
16FF/	8g\ 8ee\	.
16F\	.	.
16FF/	8f\J 8dd\	.
16F\JJ	.	.
=46	=46	=46
16GG/LL	4e/ 4cc/	.
16G\	.	.
16GG/	.	.
16G\	.	.
16GG/	8d/ 8b/	.
16G\JJ	.	.
*Xtremolo	*	*
=47	=47	=47
8c\L	8e/L 8cc/	.
16G\L 16B\	16g/L	.
16F\	16f/	.
16E\	16d/	.
16D\JJ	16e/JJ	.
=48	=48	=48
4.C/	4.c/	.
=49:|!|:	=49:|!|:	=49:|!|:
*>D	*>D	*
8G\L	8g\L	.
8d\ 8f\	8ff\	.
8d\J 8f\	8dd\J	.
=50	=50	=50
.	8qdd#X/	.
!!mixed beam:problem
!LO:TX:t=P:problem=mixed beam	!	!
8C/L	4ee\	.
8c\ 8e	.	.
8c\J 8e	8cc\	.
=51	=51	=51
8G\L	8g\L	.
8d\ 8f\	16dd\L	.
.	16cc#X\	.
8d\J 8f\	16dd\	.
.	16b\JJ	.
!!LO:LB:g=original
=52	=52	=52
!!mixed beam:problem
!LO:TX:t=P:problem=mixed beam	!	!
8C/L	8g\L	.
8c\ 8e\	16ee\L	.
.	16dd#X\	.
8c\J 8e	16ee\	.
.	16cc\JJ	.
=53	=53	=53
8G\L	8g\L	.
8d\ 8f	8ff\	.
8d\J 8f	8dd\J	.
=54	=54	=54
!!mixed beam:problem
!LO:TX:t=P:problem=mixed beam	!	!
.	8qdd#X/	.
8C/L	4ee\	.
8c\ 8e\	.	.
8c\J 8e\	8cc\	.
=55	=55	=55
8G\L	16cc/LL	.
.	16b/	.
8d\ 8f\	16a/	.
.	16g/	.
8d\J 8f\	16a/	.
.	16b/JJ	.
=56	=56	=56
!!mixed beam:problem
!LO:TX:t=P:problem=mixed beam	!	!
8c\L	4cc\	.
8C/J	.	.
8r	8r	.
=57	=57	=57
!	!	!LO:DY:rj:t=for
8G\L	8g\L	f
8d\	8ff\	.
8f\J	8dd\J	.
=58	=58	=58
.	8qdd#X/	.
8G\L	4ee\	.
8c\	.	.
8e\J	8cc\	.
=59	=59	=59
8G\L	8g\L	.
8d\	16dd\L	.
.	16cc#X\	.
8f\J	16dd\	.
.	16b\JJ	.
=60	=60	=60
8G\L	8g\L	.
8c\	16ee\L	.
.	16dd#X\	.
8e\J	16ee\	.
.	16cc\JJ	.
=61	=61	=61
8G\L	8g\L	.
8d\	8ff\	.
8f\J	8dd\J	.
=62	=62	=62
.	8qdd#X/	.
8G\L	4ee\	.
8c\	.	.
8e\J	8cc\	.
=63	=63	=63
8G\L	16gg\LL	.
.	16aa\	.
8d\ 8f\	16bb\	.
.	16gg\	.
8d\J 8f\	16aa\	.
.	16bb\JJ	.
=64	=64	=64
!!mixed beam:problem
!	!LO:TX:t=P:problem=mixed beam	!
8c\L	4ccc\	.
8C/J	.	.
!	!LO:TX:a:t=Fin	!
8r	8r	.
=:|!	=:|!	=:|!
*-	*-	*-
!!!system-decoration: [{g1}]
!!!ENC: Anastazja Marusiak
!!!END: 2020-06-17
!!!EED: Jędrzej Mróz
!!!EEV: 2022-01-05
!!!YEC: Copyright 2022 Narodowy Instytut Fryderyka Chopina (https://polishscores.org)
!!!YEM: License CC-BY-4.0 (https://creativecommons.org/licenses/by/4.0)
